X: 27451
T: Molly Bán
R: reel
M: 4/4
K: Gdorian
|:Gdd^c d2 =cB|AFcF dFcF|Gdd^c d2 de|fdcB dcBA|
Gdd^c d2 =cB|AFcF dFcF|Gdd^c d2 de|fdcA AGG2:|
|:g2dg g2ag|fdde f2df|g2dg g2ag|fdcA AGG2|
g2dg g2ag|fdde f2fg|abag fgag|fdcA AGG2:|

